src/assets/flags/tw.svg

<?xml version="1.0" encoding="UTF-8"?>
<svg xmlns="http://www.w3.org/2000/svg" xmlns:xlink="http://www.w3.org/1999/xlink" width="25px" height="px" viewBox="0 0 25 19" version="1.1">
<g id="surface1">
<rect x="0" y="0" width="25" height="19" style="fill:rgb(100%,0%,0%);fill-opacity:1;stroke:none;"/>
<path style=" stroke:none;fill-rule:nonzero;fill:rgb(0%,0%,58.431375%);fill-opacity:1;" d="M 0 0 L 14.0625 0 L 14.0625 9.5 L 0 9.5 Z M 0 0 "/>
<path style=" stroke:none;fill-rule:nonzero;fill:rgb(100%,100%,100%);fill-opacity:1;" d="M 6.015625 5.023438 L 5.917969 5.402344 L 6.285156 5.507812 L 6.214844 5.226562 Z M 7.847656 5.226562 L 7.777344 5.507812 L 8.144531 5.402344 L 8.046875 5.023438 Z M 6.214844 4.273438 L 6.015625 4.476562 L 6.089844 4.75 Z M 6.214844 4.273438 "/>
<path style=" stroke:none;fill-rule:nonzero;fill:rgb(100%,100%,100%);fill-opacity:1;" d="M 6.089844 4.75 L 6.015625 5.023438 L 6.214844 5.226562 Z M 6.089844 4.75 "/>
<path style=" stroke:none;fill-rule:nonzero;fill:rgb(100%,100%,100%);fill-opacity:1;" d="M 6.015625 4.476562 L 5.746094 4.75 L 6.015625 5.023438 L 6.089844 4.75 Z M 6.5625 5.578125 L 6.761719 5.777344 L 7.03125 5.703125 Z M 7.300781 5.777344 L 7.675781 5.878906 L 7.777344 5.507812 L 7.5 5.578125 Z M 7.300781 5.777344 "/>
<path style=" stroke:none;fill-rule:nonzero;fill:rgb(100%,100%,100%);fill-opacity:1;" d="M 7.5 5.578125 L 7.777344 5.507812 L 7.847656 5.226562 Z M 6.285156 5.507812 L 6.386719 5.878906 L 6.761719 5.777344 L 6.5625 5.578125 Z M 7.03125 5.703125 L 7.300781 5.777344 L 7.5 5.578125 Z M 7.03125 5.703125 "/>
<path style=" stroke:none;fill-rule:nonzero;fill:rgb(100%,100%,100%);fill-opacity:1;" d="M 6.761719 5.777344 L 7.03125 6.050781 L 7.300781 5.777344 L 7.03125 5.703125 Z M 6.285156 3.992188 L 5.917969 4.097656 L 6.015625 4.476562 L 6.214844 4.273438 Z M 6.214844 5.226562 L 6.285156 5.507812 L 6.5625 5.578125 Z M 7.972656 4.75 L 8.046875 4.476562 L 7.847656 4.273438 Z M 7.972656 4.75 "/>
<path style=" stroke:none;fill-rule:nonzero;fill:rgb(100%,100%,100%);fill-opacity:1;" d="M 6.5625 3.921875 L 6.285156 3.992188 L 6.214844 4.273438 Z M 7.847656 4.273438 L 7.777344 3.992188 L 7.5 3.921875 Z M 8.046875 5.023438 L 8.316406 4.75 L 8.046875 4.476562 L 7.972656 4.75 Z M 8.046875 5.023438 "/>
<path style=" stroke:none;fill-rule:nonzero;fill:rgb(100%,100%,100%);fill-opacity:1;" d="M 7.847656 4.273438 L 7.5 3.921875 L 7.03125 3.796875 L 6.5625 3.921875 L 6.214844 4.273438 L 6.089844 4.75 L 6.214844 5.226562 L 6.5625 5.578125 L 7.03125 5.703125 L 7.5 5.578125 L 7.847656 5.226562 L 7.972656 4.75 Z M 7.847656 4.273438 "/>
<path style=" stroke:none;fill-rule:nonzero;fill:rgb(100%,100%,100%);fill-opacity:1;" d="M 7.847656 5.226562 L 8.046875 5.023438 L 7.972656 4.75 Z M 8.046875 4.476562 L 8.144531 4.097656 L 7.777344 3.992188 L 7.847656 4.273438 Z M 7.777344 3.992188 L 7.675781 3.621094 L 7.300781 3.722656 L 7.5 3.921875 Z M 6.761719 3.722656 L 6.386719 3.621094 L 6.285156 3.992188 L 6.5625 3.921875 Z M 7.03125 3.796875 L 6.761719 3.722656 L 6.5625 3.921875 Z M 7.03125 3.796875 "/>
<path style=" stroke:none;fill-rule:nonzero;fill:rgb(100%,100%,100%);fill-opacity:1;" d="M 7.300781 3.722656 L 7.03125 3.449219 L 6.761719 3.722656 L 7.03125 3.796875 Z M 7.300781 3.722656 "/>
<path style=" stroke:none;fill-rule:nonzero;fill:rgb(100%,100%,100%);fill-opacity:1;" d="M 7.5 3.921875 L 7.300781 3.722656 L 7.03125 3.796875 Z M 6.761719 5.777344 L 6.386719 5.878906 L 6.5625 6.535156 L 7.03125 6.050781 Z M 6.5625 6.535156 L 7.03125 8.3125 L 7.5 6.535156 L 7.03125 6.050781 Z M 6.285156 5.507812 L 5.917969 5.402344 L 5.746094 6.050781 L 6.386719 5.878906 Z M 6.285156 5.507812 "/>
<path style=" stroke:none;fill-rule:nonzero;fill:rgb(100%,100%,100%);fill-opacity:1;" d="M 5.746094 6.050781 L 5.277344 7.835938 L 6.5625 6.535156 L 6.386719 5.878906 Z M 5.277344 5.226562 L 3.984375 6.535156 L 5.746094 6.050781 L 5.917969 5.402344 Z M 5.277344 5.226562 "/>
<path style=" stroke:none;fill-rule:nonzero;fill:rgb(100%,100%,100%);fill-opacity:1;" d="M 6.015625 5.023438 L 5.746094 4.75 L 5.277344 5.226562 L 5.917969 5.402344 Z M 6.015625 4.476562 L 5.917969 4.097656 L 5.277344 4.273438 L 5.746094 4.75 Z M 6.015625 4.476562 "/>
<path style=" stroke:none;fill-rule:nonzero;fill:rgb(100%,100%,100%);fill-opacity:1;" d="M 5.277344 4.273438 L 3.515625 4.75 L 5.277344 5.226562 L 5.746094 4.75 Z M 8.792969 5.226562 L 8.144531 5.402344 L 8.316406 6.050781 L 10.078125 6.535156 Z M 8.792969 5.226562 "/>
<path style=" stroke:none;fill-rule:nonzero;fill:rgb(100%,100%,100%);fill-opacity:1;" d="M 7.777344 5.507812 L 7.675781 5.878906 L 8.316406 6.050781 L 8.144531 5.402344 Z M 7.300781 5.777344 L 7.03125 6.050781 L 7.5 6.535156 L 7.675781 5.878906 Z M 8.046875 5.023438 L 8.144531 5.402344 L 8.792969 5.226562 L 8.316406 4.75 Z M 8.046875 5.023438 "/>
<path style=" stroke:none;fill-rule:nonzero;fill:rgb(100%,100%,100%);fill-opacity:1;" d="M 7.5 6.535156 L 8.792969 7.835938 L 8.316406 6.050781 L 7.675781 5.878906 Z M 7.777344 3.992188 L 8.144531 4.097656 L 8.316406 3.449219 L 7.675781 3.621094 Z M 7.777344 3.992188 "/>
<path style=" stroke:none;fill-rule:nonzero;fill:rgb(100%,100%,100%);fill-opacity:1;" d="M 8.792969 4.273438 L 10.078125 2.972656 L 8.316406 3.449219 L 8.144531 4.097656 Z M 8.316406 3.449219 L 8.792969 1.664062 L 7.5 2.972656 L 7.675781 3.621094 Z M 8.792969 5.226562 L 10.546875 4.75 L 8.792969 4.273438 L 8.316406 4.75 Z M 8.792969 5.226562 "/>
<path style=" stroke:none;fill-rule:nonzero;fill:rgb(100%,100%,100%);fill-opacity:1;" d="M 8.046875 4.476562 L 8.316406 4.75 L 8.792969 4.273438 L 8.144531 4.097656 Z M 6.5625 2.972656 L 5.277344 1.664062 L 5.746094 3.449219 L 6.386719 3.621094 Z M 6.5625 2.972656 "/>
<path style=" stroke:none;fill-rule:nonzero;fill:rgb(100%,100%,100%);fill-opacity:1;" d="M 6.285156 3.992188 L 6.386719 3.621094 L 5.746094 3.449219 L 5.917969 4.097656 Z M 6.285156 3.992188 "/>
<path style=" stroke:none;fill-rule:nonzero;fill:rgb(100%,100%,100%);fill-opacity:1;" d="M 5.746094 3.449219 L 3.984375 2.972656 L 5.277344 4.273438 L 5.917969 4.097656 Z M 7.300781 3.722656 L 7.675781 3.621094 L 7.5 2.972656 L 7.03125 3.449219 Z M 7.300781 3.722656 "/>
<path style=" stroke:none;fill-rule:nonzero;fill:rgb(100%,100%,100%);fill-opacity:1;" d="M 7.5 2.972656 L 7.03125 1.1875 L 6.5625 2.972656 L 7.03125 3.449219 Z M 7.5 2.972656 "/>
<path style=" stroke:none;fill-rule:nonzero;fill:rgb(100%,100%,100%);fill-opacity:1;" d="M 6.761719 3.722656 L 7.03125 3.449219 L 6.5625 2.972656 L 6.386719 3.621094 Z M 6.761719 3.722656 "/>
<path style=" stroke:none;fill-rule:nonzero;fill:rgb(0%,0%,58.431375%);fill-opacity:1;" d="M 9.027344 4.75 C 9.027344 3.632812 8.132812 2.726562 7.03125 2.726562 C 5.929688 2.726562 5.035156 3.632812 5.035156 4.75 C 5.035156 5.867188 5.929688 6.773438 7.03125 6.773438 C 8.132812 6.773438 9.027344 5.867188 9.027344 4.75 Z M 9.027344 4.75 "/>
<path style=" stroke:none;fill-rule:nonzero;fill:rgb(100%,100%,100%);fill-opacity:1;" d="M 8.792969 4.75 C 8.792969 3.765625 8.003906 2.964844 7.03125 2.964844 C 6.058594 2.964844 5.269531 3.765625 5.269531 4.75 C 5.269531 5.734375 6.058594 6.535156 7.03125 6.535156 C 8.003906 6.535156 8.792969 5.734375 8.792969 4.75 Z M 8.792969 4.75 "/>
</g>
</svg>

<svg xmlns="http://www.w3.org/2000/svg" width="25" height="px" viewBox="0 0 25 19"><path d="M0 0h25v19H0z" style="fill:red;fill-opacity:1;stroke:none"/><path d="M0 0h14.063v9.5H0Zm0 0" style="stroke:none;fill-rule:nonzero;fill:#000095;fill-opacity:1"/><path d="m6.016 5.023-.098.38.367.105-.07-.281Zm1.832.204-.07.28.367-.105-.098-.379Zm-1.633-.954-.2.204.075.273ZM6.09 4.75l-.074.273.199.204Zm0 0" style="stroke:none;fill-rule:nonzero;fill:#fff;fill-opacity:1"/><path d="m6.016 4.477-.27.273.27.273.074-.273Zm.547 1.101.199.2.27-.075Zm.738.2.375.1.101-.37-.277.07Zm0 0" style="stroke:none;fill-rule:nonzero;fill:#fff;fill-opacity:1"/><path d="m7.5 5.578.277-.07.07-.281Zm-1.215-.07.102.37.375-.1-.2-.2Zm.746.195.27.074.199-.199Zm0 0" style="stroke:none;fill-rule:nonzero;fill:#fff;fill-opacity:1"/><path d="m6.762 5.777.27.274.269-.274-.27-.074Zm-.477-1.785-.367.106.098.379.199-.204Zm-.07 1.235.07.28.277.071Zm1.758-.477.074-.273-.2-.204ZM6.563 3.922l-.278.07-.07.281Zm1.285.351-.07-.28-.278-.071Zm.199.75.27-.273-.27-.273-.074.273Zm0 0" style="stroke:none;fill-rule:nonzero;fill:#fff;fill-opacity:1"/><path d="M7.848 4.273 7.5 3.922l-.469-.125-.468.125-.348.351-.125.477.125.477.348.351.468.125.469-.125.348-.351.125-.477Zm0 0" style="stroke:none;fill-rule:nonzero;fill:#fff;fill-opacity:1"/><path d="m7.848 5.227.199-.204-.074-.273Zm.199-.75.098-.38-.368-.105.07.281Zm-.27-.485-.101-.37-.375.1.199.2Zm-1.015-.27-.375-.1-.102.37.277-.07Zm.27.075-.27-.074-.2.199Zm0 0" style="stroke:none;fill-rule:nonzero;fill:#fff;fill-opacity:1"/><path d="m7.3 3.723-.269-.274-.27.274.27.074Zm0 0" style="stroke:none;fill-rule:nonzero;fill:#fff;fill-opacity:1"/><path d="m7.5 3.922-.2-.2-.269.075Zm-.738 1.855-.375.102.176.656.468-.484Zm-.2.758.47 1.777.468-1.777-.469-.484Zm-.277-1.027-.367-.106-.172.649.64-.172Zm0 0" style="stroke:none;fill-rule:nonzero;fill:#fff;fill-opacity:1"/><path d="m5.746 6.05-.469 1.786 1.285-1.3-.175-.657Zm-.469-.823L3.984 6.535l1.762-.484.172-.649Zm0 0" style="stroke:none;fill-rule:nonzero;fill:#fff;fill-opacity:1"/><path d="m6.016 5.023-.27-.273-.469.477.641.175Zm0-.546-.098-.38-.64.176.468.477Zm0 0" style="stroke:none;fill-rule:nonzero;fill:#fff;fill-opacity:1"/><path d="m5.277 4.273-1.761.477 1.761.477.47-.477Zm3.516.954-.648.175.171.649 1.762.484Zm0 0" style="stroke:none;fill-rule:nonzero;fill:#fff;fill-opacity:1"/><path d="m7.777 5.508-.101.37.64.173-.171-.649Zm-.476.27-.27.273.469.484.176-.656Zm.746-.755.098.38.648-.176-.477-.477Zm0 0" style="stroke:none;fill-rule:nonzero;fill:#fff;fill-opacity:1"/><path d="m7.5 6.535 1.293 1.3-.477-1.784-.64-.172Zm.277-2.543.368.106.171-.649-.64.172Zm0 0" style="stroke:none;fill-rule:nonzero;fill:#fff;fill-opacity:1"/><path d="m8.793 4.273 1.285-1.3-1.762.476-.171.649Zm-.477-.824.477-1.785L7.5 2.973l.176.648Zm.477 1.778 1.754-.477-1.754-.477-.477.477Zm0 0" style="stroke:none;fill-rule:nonzero;fill:#fff;fill-opacity:1"/><path d="m8.047 4.477.27.273.476-.477-.648-.175ZM6.562 2.973 5.278 1.664l.47 1.785.64.172ZM6.285 3.992l.102-.37-.64-.173.171.649ZM5.746 3.45l-1.762-.477 1.293 1.3.641-.175Zm1.555.273.375-.102-.176-.648-.469.476ZM7.5 2.973l-.469-1.785-.468 1.785.468.476Zm0 0" style="stroke:none;fill-rule:nonzero;fill:#fff;fill-opacity:1"/><path d="m6.762 3.723.27-.274-.47-.476-.175.648Zm0 0" style="stroke:none;fill-rule:nonzero;fill:#fff;fill-opacity:1"/><path d="M9.027 4.75c0-1.117-.894-2.023-1.996-2.023s-1.996.906-1.996 2.023.895 2.023 1.996 2.023c1.102 0 1.996-.906 1.996-2.023m0 0" style="stroke:none;fill-rule:nonzero;fill:#000095;fill-opacity:1"/><path d="M8.793 4.75c0-.984-.79-1.785-1.762-1.785s-1.761.8-1.761 1.785.789 1.785 1.761 1.785c.973 0 1.762-.8 1.762-1.785m0 0" style="stroke:none;fill-rule:nonzero;fill:#fff;fill-opacity:1"/></svg>
